icons/svgs/arrow-right-to-line-solid.svg

<svg width="24" height="24" viewBox="0 0 24 24" fill="none" xmlns="http://www.w3.org/2000/svg">
<path d="M20.75 5.75V18.25C20.75 18.9531 20.1641 19.5 19.5 19.5C18.7969 19.5 18.25 18.9531 18.25 18.25V5.75C18.25 5.08594 18.7969 4.5 19.5 4.5C20.1641 4.5 20.75 5.08594 20.75 5.75ZM15.3594 12.8984L10.3594 17.8984C9.89062 18.4062 9.07031 18.4062 8.60156 17.8984C8.09375 17.4297 8.09375 16.6094 8.60156 16.1406L11.4531 13.25H4.5C3.79688 13.25 3.25 12.7031 3.25 12C3.25 11.3359 3.79688 10.75 4.5 10.75H11.4531L8.60156 7.89844C8.09375 7.42969 8.09375 6.60938 8.60156 6.14062C9.07031 5.63281 9.89062 5.63281 10.3594 6.14062L15.3594 11.1406C15.8672 11.6094 15.8672 12.4297 15.3594 12.8984Z" fill="black"/>
</svg>

<svg xmlns="http://www.w3.org/2000/svg" width="24" height="24" fill="currentColor" class="icon-arrow-right-to-line-solid" viewBox="0 0 24 24">
  <mask id="a" width="18" height="16" x="3" y="4" maskUnits="userSpaceOnUse" style="mask-type:alpha">
    <path d="M20.75 5.75v12.5c0 .703-.586 1.25-1.25 1.25-.703 0-1.25-.547-1.25-1.25V5.75c0-.664.547-1.25 1.25-1.25.664 0 1.25.586 1.25 1.25m-5.39 7.148-5 5a1.205 1.205 0 0 1-1.758 0 1.205 1.205 0 0 1 0-1.757l2.851-2.891H4.5c-.703 0-1.25-.547-1.25-1.25 0-.664.547-1.25 1.25-1.25h6.953L8.602 7.898a1.205 1.205 0 0 1 0-1.757 1.205 1.205 0 0 1 1.757 0l5 5a1.203 1.203 0 0 1 0 1.757"/>
  </mask>
  <g mask="url(#a)">
    <path d="M0 0h24v24H0z"/>
  </g>
</svg>
